X:93
T:Stagshaw Bank Fair
Z:Jack Campin, http://www.campin.me.uk/
S:Northumbrian Minstrelsy
M:4/4
L:1/8
K:G
d/c/|BG`GB cA`Ac|BG`Gc Bdgd|BGGB cAAc|Bgd^c d3 :|
e   |dB`dg ec`eg|fd`ef gage|dBdg eceg|fdef  g2fe|
     dBTB2 ecTc2|dBTB2 AFDd|edef gage|dBcA  G3 :|

